X:160
T:Lady Mary Worsleys Fancy THO4.160
M:2/4
L:1/8
Z:vmp. Peter Dunk 2010/11.from a transcription by Fynn Titford-Mock 2007
B:Thompson's Compleat Collection of 200 Favourite Country Dances Volume IV.
Q:1/4=140
K:A
Aacd|e>feA|GABc|d2c2|Aacd|e>fea|ge {g/}fe/^d/|e2E2:|
|:ae {d/}cB/A/|GA B2|ce {d/}cB/A/|e2E2|\
ae {d/}cB/A/|G>AB>d|c/e/c/A/ {d/}cB/A/|A2A,2:|
